**kern
*staff3
*tb8
=1-
*clefF4
*met(c)
*M4/4
1C/
.
.
.
.
.
.
.
=2
1C/
.
.
.
.
.
.
.
=3
4E\ 4G\
.
4D\ 4G\
.
4BB\ 4G\
.
4C\ 4G\
.
=4
!!linebreak:original
2.GG/ 2.G/
.
.
.
.
.
4r
.
=5
1DD/
.
.
.
.
.
.
.
=6
2GG/
.
.
.
4AA/
.
4BB/
.
=7:|!
!!linebreak:original
=
2C\ 2G\
.
.
.
4D\ 4G\
.
4D\ 4F#\
.
=8
8GG\L
8D\
8G\
8B\J
4r
.
8d\L
8c\J
=9
*^
2B/	1G/
.	.
.	.
.	.
4d/	.
.	.
4c/	.
.	.
*v	*v
=10
!!linebreak:original
*^
2B/	1G/
.	.
.	.
.	.
4d/	.
.	.
8c/L	.
8B/J	.
*v	*v
=11
1C/
.
.
.
.
.
.
.
=12
1C/
.
.
.
.
.
.
.
=13
*^
4c/	2.G\
.	.
8f/L	.
8e-/J	.
4d/	.
.	.
4B/	4G\
.	.
*v	*v
=14
!!linebreak:original
2C\ 2c\
.
.
.
4FF/
.
4AA-/
.
=15
2C/
.
.
.
4FF/
.
4AA-/
.
=16
2C/
.
.
.
4c\
.
4B\
.
=17
!!linebreak:original
4A\ 4c\
.
4G\ 4c\
.
4F\ 4c\
.
4E\ 4c\
.
=18
*^
1ryy	4D\ 4F\
.	.
*v	*v
4r
.
.
.
.
.
*^
4B/	2F\
.	.
4d/	.
.	.
=19	=19
4c/	2E\
.	.
2B-/	.
.	.
.	4F\
.	.
4F/	4AA\
.	.
*v	*v
=20
!!linebreak:original
*^
2G/	2GG\
.	.
.	.
.	.
4A/	4FF\
.	.
4F/	4GG\
.	.
*v	*v
=21
*^
*	*^
2CC\	4E/ 4c/	1C/
.	.	.
*	*v	*v
.	4E/ 4G/
.	.
2FF\	4F/ 4A/
.	.
.	8A/L 8c/L
.	8F/J 8A/J
=22	=22
2F/ 2A/	1CC/ 1C/
.	.
.	.
.	.
4E/ 4G/	.
.	.
4r	.
.	.
*v	*v
==
*-
